apps/landing-page/public/footerBG.svg

<svg id="e23EL9wW6Sn1" xmlns="http://www.w3.org/2000/svg" xmlns:xlink="http://www.w3.org/1999/xlink" viewBox="0 0 1440 260" shape-rendering="geometricPrecision" text-rendering="geometricPrecision"><g transform="translate(0-8)"><path d="M1440,225.714l-24-14.095c-24-14.095-72-42.286-120-35.238s-96,49.333-144,42.286c-48-7.048-96-63.429-144-84.572s-96-7.047-144,14.096c-48,21.142-96,49.333-144,49.333s-96-28.191-144-35.238c-48-7.048-96,7.047-144,24.666s-96,38.762-144,28.191c-48-10.572-96-52.857-144-74C96,120,48,120,24,120h-24l.000013,148L24,268c24,0,72,0,120,0s96,0,144,0s96,0,144,0s96,0,144,0s96,0,144,0s96,0,144,0s96,0,144,0s96,0,144,0s96,0,144,0s96,0,120,0h24v-42.286Z" clip-rule="evenodd" fill="#4c249f" fill-rule="evenodd"/></g></svg>

<svg width="1440" height="348" viewBox="0 0 1440 348" fill="none" xmlns="http://www.w3.org/2000/svg">
<g filter="url(#filter0_dd_252_1889)">
<path fill-rule="evenodd" clip-rule="evenodd" d="M1440 225.714L1416 211.619C1392 197.524 1344 169.333 1296 176.381C1248 183.429 1200 225.714 1152 218.667C1104 211.619 1056 155.238 1008 134.095C960 112.952 912 127.048 864 148.191C816 169.333 768 197.524 720 197.524C672 197.524 624 169.333 576 162.286C528 155.238 480 169.333 432 186.952C384 204.571 336 225.714 288 215.143C240 204.571 192 162.286 144 141.143C96 120 48 120 24 120L0 120L1.29386e-05 268L24 268C48 268 96 268 144 268C192 268 240 268 288 268C336 268 384 268 432 268C480 268 528 268 576 268C624 268 672 268 720 268C768 268 816 268 864 268C912 268 960 268 1008 268C1056 268 1104 268 1152 268C1200 268 1248 268 1296 268C1344 268 1392 268 1416 268L1440 268L1440 225.714Z" fill="#4C249F"/>
</g>
<path fill-rule="evenodd" clip-rule="evenodd" d="M1440 500.572L1416 580.762C1392 660.952 1344 821.333 1296 781.238C1248 741.143 1200 500.572 1152 540.667C1104 580.762 1056 901.524 1008 1021.81C959.999 1142.1 911.999 1061.9 863.999 941.619C815.999 821.333 767.999 660.952 719.999 660.952C671.999 660.952 623.999 821.333 575.999 861.429C527.999 901.524 479.999 821.333 431.999 721.095C383.999 620.857 335.999 500.571 287.999 560.714C239.999 620.857 191.999 861.429 143.999 981.714C95.999 1102 47.999 1102 23.999 1102L-0.000976562 1102L-0.000902953 260L23.9991 260C47.9991 260 95.9991 260 143.999 260C191.999 260 239.999 260 287.999 260C335.999 260 383.999 260 431.999 260C479.999 260 527.999 260 575.999 260C623.999 260 671.999 260 719.999 260C767.999 260 815.999 260 863.999 260C911.999 260 959.999 260 1008 260C1056 260 1104 260 1152 260C1200 260 1248 260 1296 260C1344 260 1392 260 1416 260L1440 260L1440 500.572Z" fill="#4C249F"/>
<defs>
<filter id="filter0_dd_252_1889" x="-100" y="0.00012207" width="1640" height="348" filterUnits="userSpaceOnUse" color-interpolation-filters="sRGB">
<feFlood flood-opacity="0" result="BackgroundImageFix"/>
<feColorMatrix in="SourceAlpha" type="matrix" values="0 0 0 0 0 0 0 0 0 0 0 0 0 0 0 0 0 0 127 0" result="hardAlpha"/>
<feOffset dy="4"/>
<feGaussianBlur stdDeviation="3"/>
<feColorMatrix type="matrix" values="0 0 0 0 0 0 0 0 0 0 0 0 0 0 0 0 0 0 0.05 0"/>
<feBlend mode="normal" in2="BackgroundImageFix" result="effect1_dropShadow_252_1889"/>
<feColorMatrix in="SourceAlpha" type="matrix" values="0 0 0 0 0 0 0 0 0 0 0 0 0 0 0 0 0 0 127 0" result="hardAlpha"/>
<feOffset dy="-20"/>
<feGaussianBlur stdDeviation="50"/>
<feColorMatrix type="matrix" values="0 0 0 0 0.501829 0 0 0 0 0.314664 0 0 0 0 0.890196 0 0 0 1 0"/>
<feBlend mode="normal" in2="effect1_dropShadow_252_1889" result="effect2_dropShadow_252_1889"/>
<feBlend mode="normal" in="SourceGraphic" in2="effect2_dropShadow_252_1889" result="shape"/>
</filter>
</defs>
</svg>
